X:2930
T:Til arbeid sju fattige dverger g\aar
C:anon.
O:Germany
N:Mads Berg's Norwegian translation is still copyright protected.
Z:Transcribed by Frank Nordberg - http://www.musicaviva.com
F:http://abc.musicaviva.com/tunes/germany/til-arbeid-sju-fattige.abc
M:2/4
L:1/8
K:F
z C|"F"FG AB|"F"c2 "Bb"dB|"F/C"A2 "C7"G2|"F"F2 :|z2|
"F"c>B Ac|"C"BA G2|"F"c>B Ac|"C"BA G2|
"F"F>G AB|"F"cf "Bb"dB|"F/C"A2 "C7"G2|"F"F2|]
W:
W:
W:  From Musica Viva - http://www.musicaviva.com
W:  the Internet center for free sheet music downloads.


